assets/Suitcase.svg

<svg width="48" height="48" viewBox="0 0 48 48" fill="none" xmlns="http://www.w3.org/2000/svg">
<foreignObject x="5.40198" y="4.33265" width="37.4714" height="26.5417"><div xmlns="http://www.w3.org/1999/xhtml" style="backdrop-filter:blur(2.08px);clip-path:url(#bgblur_0_369_4057_clip_path);height:100%;width:100%"></div></foreignObject><path data-figma-bg-blur-radius="4.16345" fill-rule="evenodd" clip-rule="evenodd" d="M16.3309 14.2244V14.2208C16.3309 11.0592 18.894 8.49609 22.0557 8.49609H26.2191C29.3808 8.49609 31.9439 11.0591 31.9439 14.2208V14.2244C34.852 14.2456 36.4443 14.3945 37.4901 15.4403C38.7096 16.6597 38.7096 18.6224 38.7096 22.5477V26.7112H9.56543V22.5477C9.56543 18.6224 9.56543 16.6597 10.7849 15.4403C11.8306 14.3945 13.423 14.2456 16.3309 14.2244ZM19.4535 14.2208C19.4535 12.7837 20.6185 11.6187 22.0557 11.6187H26.2191C27.6562 11.6187 28.8213 12.7837 28.8213 14.2208L19.4535 14.2208Z" fill="url(#paint0_linear_369_4057)"/>
<foreignObject x="5.40198" y="14.2213" width="37.4714" height="29.1433"><div xmlns="http://www.w3.org/1999/xhtml" style="backdrop-filter:blur(2.08px);clip-path:url(#bgblur_1_369_4057_clip_path);height:100%;width:100%"></div></foreignObject><path data-figma-bg-blur-radius="4.16345" d="M17.8926 18.4844H30.3828C32.3481 18.4844 33.812 18.4854 34.9375 18.6367C36.06 18.7876 36.8309 19.087 37.4189 19.6748C38.0069 20.2628 38.3071 21.0337 38.458 22.1562C38.6093 23.2818 38.6094 24.7464 38.6094 26.7119C38.6094 29.6585 38.6093 31.8584 38.3818 33.5508C38.1547 35.2403 37.7024 36.4089 36.8096 37.3018C35.9167 38.1947 34.7481 38.6469 33.0586 38.874C31.3662 39.1016 29.1656 39.1016 26.2188 39.1016H22.0557C19.1091 39.1016 16.9092 39.1015 15.2168 38.874C13.5272 38.6469 12.3578 38.1947 11.4648 37.3018C10.5722 36.4089 10.1207 35.2401 9.89355 33.5508C9.66604 31.8584 9.66504 29.6585 9.66504 26.7119C9.66504 24.7464 9.66606 23.2818 9.81738 22.1562C9.96834 21.0338 10.2675 20.2628 10.8555 19.6748C11.4435 19.0868 12.2144 18.7877 13.3369 18.6367C14.4625 18.4854 15.9271 18.4844 17.8926 18.4844Z" fill="#F8B77B" fill-opacity="0.6" stroke="url(#paint1_linear_369_4057)" stroke-width="0.200008"/>
<foreignObject x="15.6519" y="18.0514" width="17.0985" height="10.6981"><div xmlns="http://www.w3.org/1999/xhtml" style="backdrop-filter:blur(2.17px);clip-path:url(#bgblur_2_369_4057_clip_path);height:100%;width:100%"></div></foreignObject><rect data-figma-bg-blur-radius="4.34904" x="28.3214" y="22.4804" width="1.84007" height="8.24032" rx="0.920036" transform="rotate(90 28.3214 22.4804)" fill="url(#paint2_linear_369_4057)" fill-opacity="0.9" stroke="url(#paint3_linear_369_4057)" stroke-width="0.160006"/>
<defs>
<clipPath id="bgblur_0_369_4057_clip_path" transform="translate(-5.40198 -4.33265)"><path fill-rule="evenodd" clip-rule="evenodd" d="M16.3309 14.2244V14.2208C16.3309 11.0592 18.894 8.49609 22.0557 8.49609H26.2191C29.3808 8.49609 31.9439 11.0591 31.9439 14.2208V14.2244C34.852 14.2456 36.4443 14.3945 37.4901 15.4403C38.7096 16.6597 38.7096 18.6224 38.7096 22.5477V26.7112H9.56543V22.5477C9.56543 18.6224 9.56543 16.6597 10.7849 15.4403C11.8306 14.3945 13.423 14.2456 16.3309 14.2244ZM19.4535 14.2208C19.4535 12.7837 20.6185 11.6187 22.0557 11.6187H26.2191C27.6562 11.6187 28.8213 12.7837 28.8213 14.2208L19.4535 14.2208Z"/>
</clipPath><clipPath id="bgblur_1_369_4057_clip_path" transform="translate(-5.40198 -14.2213)"><path d="M17.8926 18.4844H30.3828C32.3481 18.4844 33.812 18.4854 34.9375 18.6367C36.06 18.7876 36.8309 19.087 37.4189 19.6748C38.0069 20.2628 38.3071 21.0337 38.458 22.1562C38.6093 23.2818 38.6094 24.7464 38.6094 26.7119C38.6094 29.6585 38.6093 31.8584 38.3818 33.5508C38.1547 35.2403 37.7024 36.4089 36.8096 37.3018C35.9167 38.1947 34.7481 38.6469 33.0586 38.874C31.3662 39.1016 29.1656 39.1016 26.2188 39.1016H22.0557C19.1091 39.1016 16.9092 39.1015 15.2168 38.874C13.5272 38.6469 12.3578 38.1947 11.4648 37.3018C10.5722 36.4089 10.1207 35.2401 9.89355 33.5508C9.66604 31.8584 9.66504 29.6585 9.66504 26.7119C9.66504 24.7464 9.66606 23.2818 9.81738 22.1562C9.96834 21.0338 10.2675 20.2628 10.8555 19.6748C11.4435 19.0868 12.2144 18.7877 13.3369 18.6367C14.4625 18.4854 15.9271 18.4844 17.8926 18.4844Z"/>
</clipPath><clipPath id="bgblur_2_369_4057_clip_path" transform="translate(-15.6519 -18.0514)"><rect x="28.3214" y="22.4804" width="1.84007" height="8.24032" rx="0.920036" transform="rotate(90 28.3214 22.4804)"/>
</clipPath><linearGradient id="paint0_linear_369_4057" x1="17.9724" y1="12.4806" x2="37.1677" y2="23.0424" gradientUnits="userSpaceOnUse">
<stop stop-color="#FBA47F"/>
<stop offset="1" stop-color="#DF6B00"/>
</linearGradient>
<linearGradient id="paint1_linear_369_4057" x1="7.48371" y1="20.2772" x2="41.744" y2="45.0425" gradientUnits="userSpaceOnUse">
<stop stop-color="white"/>
<stop offset="1" stop-color="white" stop-opacity="0"/>
</linearGradient>
<linearGradient id="paint2_linear_369_4057" x1="31.9008" y1="21.4089" x2="30.6068" y2="29.5954" gradientUnits="userSpaceOnUse">
<stop stop-color="white" stop-opacity="0"/>
<stop offset="0.979167" stop-color="white"/>
</linearGradient>
<linearGradient id="paint3_linear_369_4057" x1="29.4014" y1="22.4004" x2="29.4014" y2="30.8007" gradientUnits="userSpaceOnUse">
<stop stop-color="white" stop-opacity="0"/>
<stop offset="1" stop-color="white"/>
</linearGradient>
</defs>
</svg>

<svg xmlns="http://www.w3.org/2000/svg" width="48" height="48" fill="none" viewBox="0 0 48 48"><foreignObject width="37.471" height="26.542" x="5.402" y="4.333"><div xmlns="http://www.w3.org/1999/xhtml" style="backdrop-filter:blur(2.08px);clip-path:url(#bgblur_0_369_4057_clip_path);height:100%;width:100%"/></foreignObject><path fill="url(#paint0_linear_369_4057)" fill-rule="evenodd" d="M16.33 14.224v-.003a5.725 5.725 0 0 1 5.726-5.725h4.163a5.725 5.725 0 0 1 5.725 5.725v.003c2.908.022 4.5.17 5.546 1.216 1.22 1.22 1.22 3.182 1.22 7.108v4.163H9.565v-4.163c0-3.926 0-5.888 1.22-7.108 1.046-1.045 2.638-1.194 5.546-1.216m3.124-.003a2.6 2.6 0 0 1 2.602-2.602h4.163a2.6 2.6 0 0 1 2.602 2.602z" clip-rule="evenodd" data-figma-bg-blur-radius="4.163"/><foreignObject width="37.471" height="29.143" x="5.402" y="14.221"><div xmlns="http://www.w3.org/1999/xhtml" style="backdrop-filter:blur(2.08px);clip-path:url(#bgblur_1_369_4057_clip_path);height:100%;width:100%"/></foreignObject><path fill="#f8b77b" fill-opacity=".6" stroke="url(#paint1_linear_369_4057)" stroke-width=".2" d="M17.893 18.484h12.49c1.965 0 3.429.001 4.555.153 1.122.15 1.893.45 2.48 1.038.589.588.89 1.359 1.04 2.481.151 1.126.151 2.59.151 4.556 0 2.947 0 5.146-.227 6.839-.227 1.69-.68 2.858-1.572 3.75-.893.894-2.062 1.346-3.751 1.573-1.693.228-3.893.228-6.84.228h-4.163c-2.947 0-5.147 0-6.84-.228-1.689-.227-2.858-.68-3.751-1.572-.893-.893-1.344-2.062-1.571-3.751-.228-1.693-.229-3.893-.229-6.84 0-1.965.001-3.43.152-4.555.151-1.122.45-1.893 1.038-2.481s1.36-.887 2.482-1.038c1.126-.152 2.59-.153 4.556-.153Z" data-figma-bg-blur-radius="4.163"/><foreignObject width="17.099" height="10.698" x="15.652" y="18.051"><div xmlns="http://www.w3.org/1999/xhtml" style="backdrop-filter:blur(2.17px);clip-path:url(#bgblur_2_369_4057_clip_path);height:100%;width:100%"/></foreignObject><rect width="1.84" height="8.24" x="28.321" y="22.48" fill="url(#paint2_linear_369_4057)" fill-opacity=".9" stroke="url(#paint3_linear_369_4057)" stroke-width=".16" data-figma-bg-blur-radius="4.349" rx=".92" transform="rotate(90 28.321 22.48)"/><defs><linearGradient id="paint0_linear_369_4057" x1="17.972" x2="37.168" y1="12.481" y2="23.042" gradientUnits="userSpaceOnUse"><stop stop-color="#fba47f"/><stop offset="1" stop-color="#df6b00"/></linearGradient><linearGradient id="paint1_linear_369_4057" x1="7.484" x2="41.744" y1="20.277" y2="45.042" gradientUnits="userSpaceOnUse"><stop stop-color="#fff"/><stop offset="1" stop-color="#fff" stop-opacity="0"/></linearGradient><linearGradient id="paint2_linear_369_4057" x1="31.901" x2="30.607" y1="21.409" y2="29.595" gradientUnits="userSpaceOnUse"><stop stop-color="#fff" stop-opacity="0"/><stop offset=".979" stop-color="#fff"/></linearGradient><linearGradient id="paint3_linear_369_4057" x1="29.401" x2="29.401" y1="22.4" y2="30.801" gradientUnits="userSpaceOnUse"><stop stop-color="#fff" stop-opacity="0"/><stop offset="1" stop-color="#fff"/></linearGradient><clipPath id="bgblur_0_369_4057_clip_path" transform="translate(-5.402 -4.333)"><path fill-rule="evenodd" d="M16.33 14.224v-.003a5.725 5.725 0 0 1 5.726-5.725h4.163a5.725 5.725 0 0 1 5.725 5.725v.003c2.908.022 4.5.17 5.546 1.216 1.22 1.22 1.22 3.182 1.22 7.108v4.163H9.565v-4.163c0-3.926 0-5.888 1.22-7.108 1.046-1.045 2.638-1.194 5.546-1.216m3.124-.003a2.6 2.6 0 0 1 2.602-2.602h4.163a2.6 2.6 0 0 1 2.602 2.602z" clip-rule="evenodd"/></clipPath><clipPath id="bgblur_1_369_4057_clip_path" transform="translate(-5.402 -14.221)"><path d="M17.893 18.484h12.49c1.965 0 3.429.001 4.555.153 1.122.15 1.893.45 2.48 1.038.589.588.89 1.359 1.04 2.481.151 1.126.151 2.59.151 4.556 0 2.947 0 5.146-.227 6.839-.227 1.69-.68 2.858-1.572 3.75-.893.894-2.062 1.346-3.751 1.573-1.693.228-3.893.228-6.84.228h-4.163c-2.947 0-5.147 0-6.84-.228-1.689-.227-2.858-.68-3.751-1.572-.893-.893-1.344-2.062-1.571-3.751-.228-1.693-.229-3.893-.229-6.84 0-1.965.001-3.43.152-4.555.151-1.122.45-1.893 1.038-2.481s1.36-.887 2.482-1.038c1.126-.152 2.59-.153 4.556-.153"/></clipPath><clipPath id="bgblur_2_369_4057_clip_path" transform="translate(-15.652 -18.051)"><rect width="1.84" height="8.24" x="28.321" y="22.48" rx=".92" transform="rotate(90 28.321 22.48)"/></clipPath></defs></svg>
